X: 1
T: James Kellys
M: 6/8
L: 1/8
K: D
FAA BA2|FAA dB/c/d|FAA BAd|efe dc/B/A:||
faa fd2|efe dc/B/A|fde cdB|ABA GF/E/D|
faa fdf|efe dc/B/A|fde cdA|B=cB AF/E/D||
